X:1
T:Title
%%score { 1 | 2 }
L:1/8
M:3/4
K:G
V:1 treble nm="Grand Piano"
V:2 bass 
V:1
 z2 z2[Q:1/4=72] BA | G3 G AG | E4 [EG][CE] | [B,D]3 [DG] [CF][B,G] |[M:2/4] A4 |[M:1/4] BA | %6
[M:3/4] G3 G AG | E4 [EG]E | D4 EF |[M:2/4] [B,G]4 |[M:1/4] Bc |[M:3/4] d3 d ed | B4 Bc | d3 e dB | %14
[M:2/4] [FA]4 |[M:1/4] BA |[M:3/4] G3 G AG | E4 [EG]E | D4 EF |[M:2/4] [B,G]4 |] %20
V:2
 z2 z2 [G,D][G,C] | [G,B,]3 [G,B,] [G,C][G,B,] | [C,G,C]4 [C,G,][C,G,] | %3
 [G,,G,]3 [B,,D,] [A,,D,][G,,D,] |[M:2/4] [D,F,D]4 |[M:1/4] [G,D][G,C] | %6
[M:3/4] [G,B,]3 [G,B,] [G,C][G,B,] | [C,G,C]4 [C,G,][C,G,C] | [D,G,B,]4 [D,G,C][D,C] | %9
[M:2/4] [G,,D,]4 |[M:1/4][K:treble] [G,G][G,A,G] |[M:3/4] [G,B,G]3 [G,B,G] [G,CG][G,B,G] | %12
 [G,D]4 [G,G][G,A,G] | [G,B,G]3 [G,CG] [G,B,G][G,DG] |[M:2/4][K:bass] [D,D]4 |[M:1/4] [G,D][G,C] | %16
[M:3/4] [G,B,]3 [G,B,] [G,C][G,B,] | [C,G,C]4 [C,G,][C,G,C] | [D,G,B,]4 [D,G,C][D,C] | %19
[M:2/4] [G,,D,]4 |] %20

